!!!OTL: I Fall in Love Too Easily
!!!MPN: Panely, Charles
!!!OAT: Bennett, Tony
!!!OAL: Cloud 7
!!!ODL: 1954-??-??
!!!COM: Styne, Jule
!!!ODT: 1944
**kern
*ITromp
*ITrd1c2
*clefG2
*F:
*k[b-]
*M4/4
=1-
4r
16c/LL
16d/
16e/
16f/JJ
4d/
16e/LL
16f/
16g/
16a/JJ
=2
12cc/L
12f/
[12f/J
12f/L]
12g/
12a/J
12e/L
12g/
24e/L
24c/JJ
4e-/
=3||
16r
32cc\LLL
32cc#\JJ
8dd\J
16dd\LL
16ff\
16dd\
16dd-\JJ
16cc\LK
8.cc\J
8.r
16a\
=4
8cc\L
16cc\L
16dd\JJ
16cc/LL
16a/
16e/
16c/JJ
4d/
16r
16e/LL
16g/
16a/JJ
=5
8b-\L
16b-\L
16cc\JJ
8.b-\L
16cc\Jk
16a\LK
8.a\J
8e/L
16g/L
16e/JJ
=6
16f/LL
16e/
16f/
16dd/JJ
4a\
8.r
16a\
16.dd/LL
32a/Jk
24g/L
24f/
[24g/JJ
=7
8g/L]
16f#/L
16g/JJ
16f#/LL
16g/
16f/
16e/JJ
8cc\L
8cc\J
8r
8b-\
=8
8.a/L
16g/Jk
16f/LL
16g/
16a/
[16d/JJ
8d/]
16r
16e/
8f/L
16g/L
16g#/JJ
=9
16a\LL
16b\
16g#\
[16a\JJ
16a\LL]
16b\
16cc\
16dd\JJ
12ee\L
12ee\
[12ee\J
8ee\L]
16ee\L
[16ee\JJ
=10
4ee\_
16.ee\LL]
32dd\Jk
24cc\L
24a\
24f\JJ
8c#/L
8e/J
12g\L
12b-\
12cc#\J
==
*-
!!!OCL: Hubert Leveille Gauvin
!!!ENC: Hubert Leveille Gauvin
!!!END: 2018-11-21